src/img/icons/chevron-right.svg

<svg fill="none" height="22" viewBox="0 0 14 22" width="14" xmlns="http://www.w3.org/2000/svg"><path d="m2.5 21.5c-.42188 0-.79688-.1406-1.07812-.4219-.60938-.5625-.60938-1.5469 0-2.1093l7.92187-7.9688-7.92187-7.92188c-.60938-.5625-.60938-1.54687 0-2.10937.5625-.609375 1.54687-.609375 2.10937 0l8.99995 9c.6094.56245.6094 1.54685 0 2.10935l-8.99995 9c-.28125.2813-.65625.4219-1.03125.4219z" fill="#454545"/></svg>

<svg width="14" height="22" viewBox="0 0 14 22" fill="none" xmlns="http://www.w3.org/2000/svg">
<path d="M2.5 21.5C2.07812 21.5 1.70312 21.3594 1.42188 21.0781C0.8125 20.5156 0.8125 19.5312 1.42188 18.9688L9.34375 11L1.42188 3.07812C0.8125 2.51562 0.8125 1.53125 1.42188 0.96875C1.98438 0.359375 2.96875 0.359375 3.53125 0.96875L12.5312 9.96875C13.1406 10.5312 13.1406 11.5156 12.5312 12.0781L3.53125 21.0781C3.25 21.3594 2.875 21.5 2.5 21.5Z" fill="#454545"/>
</svg>
